public/img/home/photo-red.svg

<svg xmlns="http://www.w3.org/2000/svg" xmlns:xlink="http://www.w3.org/1999/xlink" preserveAspectRatio="xMidYMid" width="35" height="32" viewBox="0 0 35 32">
  <defs>
    <style>
      .cls-1 {
        fill: #FE5B5F;
        fill-rule: evenodd;
      }
    </style>
  </defs>
  <path d="M34.964,28.457 C34.654,29.682 33.382,32.000 30.784,32.000 L4.110,32.000 C1.483,32.000 0.290,29.653 0.026,28.413 L-0.000,28.166 L-0.000,21.686 C-0.000,16.493 -0.000,8.295 -0.000,8.295 C-0.000,6.729 0.612,5.790 1.127,5.277 C2.222,4.186 3.667,4.153 3.836,4.153 C3.836,4.153 3.837,4.153 3.838,4.153 L8.394,4.153 C8.649,3.638 9.034,2.875 9.483,2.026 C10.380,0.326 12.152,-0.039 13.092,0.005 L21.802,0.005 C22.749,-0.037 24.514,0.326 25.412,2.026 C25.860,2.875 26.245,3.638 26.501,4.153 L31.059,4.153 C31.059,4.153 31.060,4.153 31.060,4.153 C31.236,4.153 32.750,4.187 33.876,5.311 C34.390,5.822 35.000,6.755 35.000,8.295 L35.000,28.313 L34.964,28.457 ZM32.627,8.295 C32.627,6.729 31.522,6.534 31.046,6.523 L25.017,6.523 L24.693,5.852 C24.687,5.839 24.089,4.600 23.313,3.131 C22.890,2.330 21.925,2.372 21.920,2.372 L21.838,2.375 L12.975,2.372 C12.891,2.367 11.990,2.355 11.581,3.131 C10.804,4.603 10.206,5.839 10.200,5.852 L9.877,6.523 L3.835,6.523 C3.298,6.537 2.373,6.788 2.373,8.295 L2.373,28.020 C2.481,28.406 2.922,29.630 4.110,29.630 L30.784,29.630 C31.975,29.630 32.491,28.395 32.627,27.992 L32.627,8.295 ZM17.447,25.896 C12.766,25.896 8.958,22.092 8.958,17.417 C8.958,12.741 12.766,8.938 17.447,8.938 C22.128,8.938 25.937,12.741 25.937,17.417 C25.937,22.092 22.128,25.896 17.447,25.896 ZM17.447,11.307 C14.074,11.307 11.330,14.048 11.330,17.416 C11.330,20.785 14.074,23.526 17.447,23.526 C20.820,23.526 23.564,20.785 23.564,17.416 C23.564,14.047 20.820,11.307 17.447,11.307 Z" class="cls-1"/>
</svg>

<svg xmlns="http://www.w3.org/2000/svg" width="35" height="32" preserveAspectRatio="xMidYMid"><defs><style>.cls-1 { fill: #FE5B5F; fill-rule: evenodd; }</style></defs><path d="M34.96 28.46c-.3 1.22-1.58 3.54-4.18 3.54H4.1C1.5 32 .3 29.65.04 28.4L0 28.18V21.7C0 16.5 0 8.3 0 8.3c0-1.57.6-2.5 1.13-3.02 1.1-1.1 2.54-1.13 2.7-1.13H8.4c.25-.5.63-1.28 1.08-2.12.9-1.7 2.67-2.07 3.6-2.02h8.72c.95-.04 2.7.33 3.6 2.03.46.85.85 1.6 1.1 2.12h4.56c.18 0 1.7.04 2.82 1.16.5.52 1.12 1.46 1.12 3v20l-.04.16zM32.63 8.3c0-1.57-1.1-1.77-1.58-1.78h-6.03l-.33-.67s-.6-1.25-1.4-2.72c-.4-.8-1.38-.76-1.38-.76h-8.95c-.08 0-.98-.02-1.4.76-.77 1.47-1.36 2.7-1.37 2.72l-.32.67H3.83c-.53.02-1.46.27-1.46 1.78v19.72c.1.4.55 1.6 1.74 1.6H30.8c1.2 0 1.7-1.23 1.85-1.63V8.3zM17.45 25.9c-4.68 0-8.5-3.8-8.5-8.48 0-4.68 3.82-8.48 8.5-8.48s8.5 3.8 8.5 8.48c0 4.67-3.82 8.48-8.5 8.48zm0-14.6c-3.38 0-6.12 2.75-6.12 6.12 0 3.36 2.74 6.1 6.12 6.1 3.37 0 6.1-2.73 6.1-6.1 0-3.37-2.73-6.1-6.1-6.1z" class="cls-1"/></svg>
